X: 11
T: Pensant au bien que m'a dame m'a fait
N: Derived from Com3029-Pensant_au_bien_que_ma_dame_ma_fait.krn
C: Loyset Comp\`ere
%%abc-version 2.0
%%abcx-abcm2ps-target-version 5.9.1 (29 Sep 2008)
%%abc-creator hum2abc beta
%%abcx-conversion-date 2019/02/16 20:28:09
%%abc-edited-by Jesse Rodin
%%abc-edited-by Megan K. Eagen 2013/12/18
%%abcx-initial-encoding-date 2013/12/18/
%%humdrum-veritas 2596973722
%%humdrum-veritas-data 533337419
%%linebreak <none>
%%barnumbers 0
L: 1/4
M: 2/1
Q: 1/2=120
V: 1 clef=treble
V: 2 clef=treble-8
V: 3 clef=bass
K: F
[V:1] z8 | 
[V:2] z4G4 | 
[V:3] z4G,4 | 
[V:1] z8 | 
[V:2] B4c4 | 
[V:3] G,2D,2_E,3D,/C,/ | 
[V:1] z4D4 | 
[V:2] d4z2d2 | 
[V:3] B,,8 | 
[V:1] F4G4 | 
[V:2] d4e4 | 
[V:3] D,4C,4 | 
[V:1] A4z2A2 | 
[V:2] f3edcd2- | 
[V:3] z2F,3E,D,C, | 
[V:1] A4B4 | 
[V:2] d2c2B2AG | 
[V:3] D,2F,2G,4 | 
[V:1] c3BAGB2- | 
[V:2] FGABc2d2 | 
[V:3] A,2F,3E,D,2 | 
[V:1] BA/G/G4^F2 | 
[V:2] B2c2A4 | 
[V:3] _E,2C,2D,4 | 
[V:1] G8 | 
[V:2] G4z4 | 
[V:3] z2G,3F,E,2- | 
[V:1] z4A4 | 
[V:2] c4c4 | 
[V:3] E,D,C,2F,4 | 
[V:1] A4A2B2- | 
[V:2] c2d3cBA | 
[V:3] z2F,3E,D,C, | 
[V:1] B2AGF4- | 
[V:2] B4A4 | 
[V:3] B,,3C,D,4- | 
[V:1] F4z2F2 | 
[V:2] z2d2d4 | 
[V:3] D,4D,4 | 
[V:1] G4B4 | 
[V:2] e4d4 | 
[V:3] C,4G,4 | 
[V:1] A4G2G2- | 
[V:2] d2c3AB2 | 
[V:3] D,2F,4_E,2 | 
[V:1] GFEDE4 | 
[V:2] A2d4c2 | 
[V:3] C,D,2C,/B,,/A,,4 | 
[V:1] D8 | 
[V:2] B2AGF2G2 | 
[V:3] B,,8 | 
[V:1] z2G2G2^F2 | 
[V:2] B4A4 | 
[V:3] B,,3C,D,4 | 
[V:1] G8 | 
[V:2] G4z4 | 
[V:3] G,,3A,,B,,2C,2- | 
[V:1] z4A4 | 
[V:2] c4c2c2 | 
[V:3] C,D,E,D,/E,/F,4 | 
[V:1] A2A2A2B2- | 
[V:2] c2c2d4 | 
[V:3] z2F,3E,D,C, | 
[V:1] BAA4G2 | 
[V:2] dcBAB4 | 
[V:3] B,,2F,2G,4 | 
[V:1] A4z2A2 | 
[V:2] A8 | 
[V:3] D,2F,3E,D,2 | 
[V:1] AGFED2F2 | 
[V:2] z2d2d4 | 
[V:3] C,2D,2F,3G, | 
[V:1] E4D4 | 
[V:2] c4d4- | 
[V:3] A,4z2D,2 | 
[V:1] z2D2DEFG | 
[V:2] d4z2D2 | 
[V:3] D,3E,F,G,A,B, | 
[V:1] AGABcBAG | 
[V:2] DEFGABcB/c/ | 
[V:3] A,3G,F,E,/D,/C,2 | 
[V:1] B2A3GG2- | 
[V:2] dBc2G2B2 | 
[V:3] B,,2F,2E,2G,2 | 
[V:1] G2^F2G4 ||  
[V:2] A4G4 ||  
[V:3] D,4G,,4 ||  
[V:1]  [K:F] [K:clef=treble][M:2/1]z4D4 | 
[V:2]  [K:F] [K:clef=treble-8][M:2/1]z4B4 | 
[V:3]  [K:F] [K:clef=bass][M:2/1]z4G,4 | 
[V:1] D3EF2G2- | 
[V:2] B6AG | 
[V:3] G,3F,/E,/D,2C,B,, | 
[V:1] G2^FEF4 | 
[V:2] A4A4 | 
[V:3] C,4D,4 | 
[V:1] G4z2G2 | 
[V:2] G8 | 
[V:3] G,,8 | 
[V:1] G4G4 | 
[V:2] z2B2B4 | 
[V:3] _E,4E,3D, | 
[V:1] F3EF2E2- | 
[V:2] B2A3FG2 | 
[V:3] B,,2D,4C,2 | 
[V:1] EDD4^C2 | 
[V:2] D2F2E4 | 
[V:3] D,4A,,4 | 
[V:1] D4z2F2 | 
[V:2] D8 | 
[V:3] z2F,2F,G,A,B, | 
[V:1] FGABc3B | 
[V:2] z2F2FGAB | 
[V:3] A,3G,A,2F,2- | 
[V:1] AGF4B2- | 
[V:2] c2d4cB | 
[V:3] F,E,D,C,D,2G,2 | 
[V:1] B2A2B4 | 
[V:2] c4B4- | 
[V:3] F,4z2G,2 | 
[V:1] z2B2B4 | 
[V:2] B4z2d2 | 
[V:3] G,4G,4 | 
[V:1] B4A3B | 
[V:2] d2e2f4 | 
[V:3] G,4F,2E,D, | 
[V:1] c2B4AG | 
[V:2] e2d4cB | 
[V:3] C,2G,,2B,,2C,2 | 
[V:1] F3GABA2- | 
[V:2] A3Bcdc2 | 
[V:3] D,4C,2F,2 | 
[V:1] AGG4^F2 | 
[V:2] G2B2A4 | 
[V:3] E,2G,2D,4 | 
[V:1] G8 |]  
[V:2] G8 |]  
[V:3] G,,8 |]  



